X:200
%%etbk:tnset id:182,pos:4,rep:3x-STOP,ant:
%%etbk:wsite http://www.thesession.org/tunes/display/64
%%etbk:pldat 2016-06-23T18:39,2016-06-22T15:36,2016-06-20T18:11,2016-06-16T18:14,2016-03-05T13:38,2016-02-26T17:19,2016-02-10T16:38,2016-02-08T18:55,2015-06-24T18:58,2015-06-21T15:53,2015-06-16T17:06,2015-03-11T17:00,2014-10-29T15:24,2014-10-27T18:36,2014-08-21T19:30,2014-08-19T18:05,2014-06-23T18:16,2014-06-11T16:12,2014-06-03T15:15,2014-05-28T16:38,2014-02-26T16:36,2013-10-30T15:23
T: Maid Behind The Bar, The
Z: Piano Box Version by Martin Fleischmann
H: Created 2013-02-19 /  Last Modified 2013-02-19
M: 4/4
L: 1/8
R: reel
K: Dmaj
|: "D"!3!F!4!AAB !4!A!3!FE!1!D | !3!F!4!A!1!AB !1!A!2!B!3!d!4!e | "bm"!5!f!2!BBA !2!B!3!c!1!de | "A"!3!f2gf !2!e!1!d!2!B!1!A |
"D"!3!F2!4!AB !4!A!3!FE!1!D | !3!F!4!A!1!AB !1!A!2!B!3!d!4!e | "bm"!5!f!2!BBA !2!BcdB | "A"!1!A!3!FEF "D"!1!D4:|
|: "D"!3!fg!5!ag !3!f!1!dde | !3!fd!5!ad f!1!dd2 | "A"!1!efga !5!b!1!e !3!(3e!2!e!1!e | !3!g!1!e!5!be !3!g!1!ee2 |
"D"!3!f!1!d!5!ad !5!bd!5!a!3!f | !1!defd !2!e{g}ede | "bm"!3!f!1!B!2!BA !2!BcdB | "A"!1!A!3!FEF "D"!1!D4:|


